public/themes/horror/hockey mask.svg

<?xml version="1.0" encoding="UTF-8" standalone="no"?>
<!-- Uploaded to: SVG Repo, www.svgrepo.com, Generator: SVG Repo Mixer Tools -->

<svg
   height="800.00159"
   width="669.81091"
   version="1.1"
   id="_x32_"
   viewBox="0 0 428.67898 512.00102"
   xml:space="preserve"
   sodipodi:docname="hockey mask.svg"
   inkscape:version="1.4.2 (ebf0e940, 2025-05-08)"
   xmlns:inkscape="http://www.inkscape.org/namespaces/inkscape"
   xmlns:sodipodi="http://sodipodi.sourceforge.net/DTD/sodipodi-0.dtd"
   xmlns="http://www.w3.org/2000/svg"
   xmlns:svg="http://www.w3.org/2000/svg"><defs
   id="defs15" /><sodipodi:namedview
   id="namedview15"
   pagecolor="#ffffff"
   bordercolor="#000000"
   borderopacity="0.25"
   inkscape:showpageshadow="2"
   inkscape:pageopacity="0.0"
   inkscape:pagecheckerboard="0"
   inkscape:deskcolor="#d1d1d1"
   inkscape:zoom="0.2434501"
   inkscape:cx="264.94136"
   inkscape:cy="616.14269"
   inkscape:window-width="896"
   inkscape:window-height="245"
   inkscape:window-x="0"
   inkscape:window-y="39"
   inkscape:window-maximized="0"
   inkscape:current-layer="_x32_" />
<style
   type="text/css"
   id="style1">
	.st0{fill:#800a00000000000000;}
</style>
<g
   id="g15"
   style="fill:#800a00;fill-opacity:1"
   transform="translate(-41.661)">
	<path
   class="st0"
   d="m 455.097,261.156 c 0.517,-7.944 0.792,-15.904 0.792,-23.864 C 455.857,181.989 443.072,126.364 411.262,83.378 395.374,61.921 374.636,43.779 348.792,30.986 327.496,20.439 302.618,13.796 274.474,11.347 V 0 h -48.437 v 11.581 c -23.372,2.708 -44.376,9.133 -62.879,18.652 -37.668,19.308 -64.66,51.052 -81.955,87.944 -17.335,36.949 -25.271,79.175 -25.286,120.981 0,7.354 0.29,14.685 0.779,21.998 H 41.661 v 45.249 h 20.98 c 9.944,55.036 27.376,103.315 55.564,139.731 11.012,14.191 23.828,26.402 38.266,36.423 5.71,4.187 20.58,12.204 24.972,14.102 18.115,8.535 46.679,15.355 74.512,15.34 27.833,0.008 52.647,-4.785 74.621,-13.941 7.597,-3.273 22.006,-11.008 24.972,-13.06 24.713,-16.074 44.464,-38.913 59.432,-67.231 16.366,-30.92 27.462,-68.281 34.606,-111.364 h 20.754 v -45.249 z m -25.077,0 h -13.796 v 45.249 h 8.058 c -9.577,55.246 -26.064,98.66 -50.187,128.498 -13.787,17.092 -29.958,29.918 -49.322,38.686 -19.351,8.736 -42.016,13.431 -68.818,13.439 -26.588,-0.024 -49.087,-5.31 -68.447,-14.854 C 158.532,457.845 136.134,433.673 119.013,401.12 105.04,374.508 94.885,342.326 88.056,306.404 H 95.77 V 261.155 H 81.709 C 81.179,253.866 80.905,246.511 80.905,239.157 80.856,187.605 94.187,135.9 121.939,98.005 135.811,79.029 153.198,63.424 174.57,52.449 189.573,44.755 206.723,39.47 226.038,36.908 v 8.332 h 48.437 v -8.898 c 24.438,2.376 45.455,8.235 63.23,17.028 33.248,16.512 56.2,42.752 71.312,74.997 15.081,32.172 21.91,70.302 21.893,108.924 -0.001,7.953 -0.332,15.921 -0.89,23.865 z"
   id="path1"
   style="fill:#800a00;fill-opacity:1" />
	<path
   class="st0"
   d="m 193.395,221.362 c -30.823,-4.735 -61.383,6.724 -64.001,26.266 -3.281,24.592 5.608,48.95 24.616,54.146 36.08,9.82 73.825,-16.43 73.825,-47.608 0.001,-24.658 -13.128,-29.514 -34.44,-32.804 z"
   id="path2"
   style="fill:#800a00;fill-opacity:1" />
	<path
   class="st0"
   d="m 320.689,221.362 c -21.335,3.29 -34.44,8.146 -34.44,32.803 0,31.179 37.749,57.428 73.825,47.608 19.007,-5.196 27.898,-29.554 24.616,-54.146 -2.585,-19.541 -33.15,-31 -64.001,-26.265 z"
   id="path3"
   style="fill:#800a00;fill-opacity:1" />
	<polygon
   class="st0"
   points="255.737,218.073 308.247,190.191 203.219,190.191 "
   id="polygon3"
   style="fill:#800a00;fill-opacity:1" />
	<path
   class="st0"
   d="m 259.835,315.714 c -6.805,0 -12.304,5.504 -12.304,12.3 0,6.789 5.499,12.308 12.304,12.308 6.789,0 12.308,-5.519 12.308,-12.308 0,-6.796 -5.52,-12.3 -12.308,-12.3 z"
   id="path4"
   style="fill:#800a00;fill-opacity:1" />
	<path
   class="st0"
   d="m 226.195,358.369 c -6.319,0 -11.488,5.14 -11.488,11.492 0,6.352 5.169,11.476 11.488,11.476 6.344,0 11.488,-5.123 11.488,-11.476 0,-6.352 -5.144,-11.492 -11.488,-11.492 z"
   id="path5"
   style="fill:#800a00;fill-opacity:1" />
	<path
   class="st0"
   d="m 226.195,410.875 c -6.319,0 -11.488,5.132 -11.488,11.492 0,6.344 5.169,11.476 11.488,11.476 6.344,0 11.488,-5.132 11.488,-11.476 0,-6.36 -5.144,-11.492 -11.488,-11.492 z"
   id="path6"
   style="fill:#800a00;fill-opacity:1" />
	<path
   class="st0"
   d="m 296.763,358.369 c -6.344,0 -11.492,5.14 -11.492,11.492 0,6.352 5.148,11.476 11.492,11.476 6.34,0 11.484,-5.123 11.484,-11.476 0,-6.352 -5.144,-11.492 -11.484,-11.492 z"
   id="path7"
   style="fill:#800a00;fill-opacity:1" />
	<path
   class="st0"
   d="m 296.763,410.875 c -6.344,0 -11.492,5.132 -11.492,11.492 0,6.344 5.148,11.476 11.492,11.476 6.34,0 11.484,-5.132 11.484,-11.476 0,-6.36 -5.144,-11.492 -11.484,-11.492 z"
   id="path8"
   style="fill:#800a00;fill-opacity:1" />
	<path
   class="st0"
   d="m 219.633,164.742 c 6.804,0 12.328,-5.486 12.328,-12.275 0,-6.822 -5.524,-12.333 -12.328,-12.333 -6.789,0 -12.288,5.512 -12.288,12.333 0,6.789 5.499,12.275 12.288,12.275 z"
   id="path9"
   style="fill:#800a00;fill-opacity:1" />
	<path
   class="st0"
   d="m 169.822,126.25 c 0,6.788 5.5,12.284 12.284,12.284 6.808,0 12.328,-5.496 12.328,-12.284 0,-6.813 -5.52,-12.333 -12.328,-12.333 -6.784,0.001 -12.284,5.52 -12.284,12.333 z"
   id="path10"
   style="fill:#800a00;fill-opacity:1" />
	<path
   class="st0"
   d="m 285.271,164.742 c 6.809,0 12.312,-5.486 12.312,-12.275 0,-6.822 -5.503,-12.333 -12.312,-12.333 -6.805,0 -12.304,5.512 -12.304,12.333 0,6.789 5.499,12.275 12.304,12.275 z"
   id="path11"
   style="fill:#800a00;fill-opacity:1" />
	<path
   class="st0"
   d="m 318.386,139.949 c 6.808,0 12.304,-5.488 12.304,-12.276 0,-6.813 -5.496,-12.333 -12.304,-12.333 -6.809,0 -12.308,5.52 -12.308,12.333 -10e-4,6.789 5.499,12.276 12.308,12.276 z"
   id="path12"
   style="fill:#800a00;fill-opacity:1" />
	<path
   class="st0"
   d="m 173.592,97.366 c 6.804,0 12.332,-5.486 12.332,-12.276 0,-6.812 -5.528,-12.332 -12.332,-12.332 -6.788,0 -12.288,5.52 -12.288,12.332 0,6.79 5.5,12.276 12.288,12.276 z"
   id="path13"
   style="fill:#800a00;fill-opacity:1" />
	<path
   class="st0"
   d="m 324.063,91.694 c 6.805,0 12.308,-5.488 12.308,-12.276 0,-6.82 -5.503,-12.332 -12.308,-12.332 -6.812,0 -12.312,5.512 -12.312,12.332 0,6.788 5.499,12.276 12.312,12.276 z"
   id="path14"
   style="fill:#800a00;fill-opacity:1" />
	<polygon
   class="st0"
   points="147.448,387.075 170.42,413.324 203.219,328.014 "
   id="polygon14"
   style="fill:#800a00;fill-opacity:1" />
	<polygon
   class="st0"
   points="319.719,328.014 352.542,413.324 375.51,387.075 "
   id="polygon15"
   style="fill:#800a00;fill-opacity:1" />
</g>
</svg>

<?xml version="1.0" encoding="UTF-8" standalone="no"?>
<!-- Uploaded to: SVG Repo, www.svgrepo.com, Generator: SVG Repo Mixer Tools -->

<svg
   height="800px"
   width="800px"
   version="1.1"
   id="_x32_"
   viewBox="0 0 512 512"
   xml:space="preserve"
   sodipodi:docname="horror-mask-illustration-1-svgrepo-com.svg"
   inkscape:version="1.4.2 (ebf0e940, 2025-05-08)"
   xmlns:inkscape="http://www.inkscape.org/namespaces/inkscape"
   xmlns:sodipodi="http://sodipodi.sourceforge.net/DTD/sodipodi-0.dtd"
   xmlns="http://www.w3.org/2000/svg"
   xmlns:svg="http://www.w3.org/2000/svg"><defs
   id="defs15" /><sodipodi:namedview
   id="namedview15"
   pagecolor="#ffffff"
   bordercolor="#000000"
   borderopacity="0.25"
   inkscape:showpageshadow="2"
   inkscape:pageopacity="0.0"
   inkscape:pagecheckerboard="0"
   inkscape:deskcolor="#d1d1d1"
   inkscape:zoom="0.2434501"
   inkscape:cx="326.55563"
   inkscape:cy="616.14269"
   inkscape:window-width="1712"
   inkscape:window-height="971"
   inkscape:window-x="0"
   inkscape:window-y="39"
   inkscape:window-maximized="1"
   inkscape:current-layer="_x32_" />
<style
   type="text/css"
   id="style1">
	.st0{fill:#800a00000000000000;}
</style>
<g
   id="g15"
   style="fill:#800a00;fill-opacity:1">
	<path
   class="st0"
   d="M455.097,261.156c0.517-7.944,0.792-15.904,0.792-23.864c-0.032-55.303-12.817-110.928-44.627-153.914   c-15.888-21.457-36.626-39.599-62.47-52.392c-21.296-10.547-46.174-17.19-74.318-19.639V0h-48.437v11.581   c-23.372,2.708-44.376,9.133-62.879,18.652c-37.668,19.308-64.66,51.052-81.955,87.944   c-17.335,36.949-25.271,79.175-25.286,120.981c0,7.354,0.29,14.685,0.779,21.998H41.661v45.249h20.98   c9.944,55.036,27.376,103.315,55.564,139.731c11.012,14.191,23.828,26.402,38.266,36.423c5.71,4.187,20.58,12.204,24.972,14.102   c18.115,8.535,46.679,15.355,74.512,15.34c27.833,0.008,52.647-4.785,74.621-13.941c7.597-3.273,22.006-11.008,24.972-13.06   c24.713-16.074,44.464-38.913,59.432-67.231c16.366-30.92,27.462-68.281,34.606-111.364h20.754v-45.249H455.097z M430.02,261.156   h-13.796v45.249h8.058c-9.577,55.246-26.064,98.66-50.187,128.498c-13.787,17.092-29.958,29.918-49.322,38.686   c-19.351,8.736-42.016,13.431-68.818,13.439c-26.588-0.024-49.087-5.31-68.447-14.854c-28.976-14.329-51.374-38.501-68.495-71.054   c-13.973-26.612-24.128-58.794-30.957-94.716h7.714v-45.249H81.709c-0.53-7.289-0.804-14.644-0.804-21.998   C80.856,187.605,94.187,135.9,121.939,98.005c13.872-18.976,31.259-34.581,52.631-45.556c15.003-7.694,32.153-12.979,51.468-15.541   v8.332h48.437v-8.898c24.438,2.376,45.455,8.235,63.23,17.028c33.248,16.512,56.2,42.752,71.312,74.997   c15.081,32.172,21.91,70.302,21.893,108.924C430.909,245.244,430.578,253.212,430.02,261.156z"
   id="path1"
   style="fill:#800a00;fill-opacity:1" />
	<path
   class="st0"
   d="M193.395,221.362c-30.823-4.735-61.383,6.724-64.001,26.266c-3.281,24.592,5.608,48.95,24.616,54.146   c36.08,9.82,73.825-16.43,73.825-47.608C227.836,229.508,214.707,224.652,193.395,221.362z"
   id="path2"
   style="fill:#800a00;fill-opacity:1" />
	<path
   class="st0"
   d="M320.689,221.362c-21.335,3.29-34.44,8.146-34.44,32.803c0,31.179,37.749,57.428,73.825,47.608   c19.007-5.196,27.898-29.554,24.616-54.146C382.105,228.086,351.54,216.627,320.689,221.362z"
   id="path3"
   style="fill:#800a00;fill-opacity:1" />
	<polygon
   class="st0"
   points="308.247,190.191 203.219,190.191 255.737,218.073  "
   id="polygon3"
   style="fill:#800a00;fill-opacity:1" />
	<path
   class="st0"
   d="M259.835,315.714c-6.805,0-12.304,5.504-12.304,12.3c0,6.789,5.499,12.308,12.304,12.308   c6.789,0,12.308-5.519,12.308-12.308C272.143,321.218,266.623,315.714,259.835,315.714z"
   id="path4"
   style="fill:#800a00;fill-opacity:1" />
	<path
   class="st0"
   d="M226.195,358.369c-6.319,0-11.488,5.14-11.488,11.492c0,6.352,5.169,11.476,11.488,11.476   c6.344,0,11.488-5.123,11.488-11.476C237.683,363.509,232.539,358.369,226.195,358.369z"
   id="path5"
   style="fill:#800a00;fill-opacity:1" />
	<path
   class="st0"
   d="M226.195,410.875c-6.319,0-11.488,5.132-11.488,11.492c0,6.344,5.169,11.476,11.488,11.476   c6.344,0,11.488-5.132,11.488-11.476C237.683,416.007,232.539,410.875,226.195,410.875z"
   id="path6"
   style="fill:#800a00;fill-opacity:1" />
	<path
   class="st0"
   d="M296.763,358.369c-6.344,0-11.492,5.14-11.492,11.492c0,6.352,5.148,11.476,11.492,11.476   c6.34,0,11.484-5.123,11.484-11.476C308.247,363.509,303.103,358.369,296.763,358.369z"
   id="path7"
   style="fill:#800a00;fill-opacity:1" />
	<path
   class="st0"
   d="M296.763,410.875c-6.344,0-11.492,5.132-11.492,11.492c0,6.344,5.148,11.476,11.492,11.476   c6.34,0,11.484-5.132,11.484-11.476C308.247,416.007,303.103,410.875,296.763,410.875z"
   id="path8"
   style="fill:#800a00;fill-opacity:1" />
	<path
   class="st0"
   d="M219.633,164.742c6.804,0,12.328-5.486,12.328-12.275c0-6.822-5.524-12.333-12.328-12.333   c-6.789,0-12.288,5.512-12.288,12.333C207.345,159.256,212.844,164.742,219.633,164.742z"
   id="path9"
   style="fill:#800a00;fill-opacity:1" />
	<path
   class="st0"
   d="M169.822,126.25c0,6.788,5.5,12.284,12.284,12.284c6.808,0,12.328-5.496,12.328-12.284   c0-6.813-5.52-12.333-12.328-12.333C175.322,113.918,169.822,119.437,169.822,126.25z"
   id="path10"
   style="fill:#800a00;fill-opacity:1" />
	<path
   class="st0"
   d="M285.271,164.742c6.809,0,12.312-5.486,12.312-12.275c0-6.822-5.503-12.333-12.312-12.333   c-6.805,0-12.304,5.512-12.304,12.333C272.967,159.256,278.466,164.742,285.271,164.742z"
   id="path11"
   style="fill:#800a00;fill-opacity:1" />
	<path
   class="st0"
   d="M318.386,139.949c6.808,0,12.304-5.488,12.304-12.276c0-6.813-5.496-12.333-12.304-12.333   c-6.809,0-12.308,5.52-12.308,12.333C306.077,134.462,311.577,139.949,318.386,139.949z"
   id="path12"
   style="fill:#800a00;fill-opacity:1" />
	<path
   class="st0"
   d="M173.592,97.366c6.804,0,12.332-5.486,12.332-12.276c0-6.812-5.528-12.332-12.332-12.332   c-6.788,0-12.288,5.52-12.288,12.332C161.304,91.88,166.804,97.366,173.592,97.366z"
   id="path13"
   style="fill:#800a00;fill-opacity:1" />
	<path
   class="st0"
   d="M324.063,91.694c6.805,0,12.308-5.488,12.308-12.276c0-6.82-5.503-12.332-12.308-12.332   c-6.812,0-12.312,5.512-12.312,12.332C311.751,86.206,317.25,91.694,324.063,91.694z"
   id="path14"
   style="fill:#800a00;fill-opacity:1" />
	<polygon
   class="st0"
   points="170.42,413.324 203.219,328.014 147.448,387.075  "
   id="polygon14"
   style="fill:#800a00;fill-opacity:1" />
	<polygon
   class="st0"
   points="352.542,413.324 375.51,387.075 319.719,328.014  "
   id="polygon15"
   style="fill:#800a00;fill-opacity:1" />
</g>
</svg>
